usr/share/icons/biglinux-icons-material/scalable/apps/org.gnome.Gtranslator.svg

<?xml version="1.0" encoding="UTF-8" standalone="no"?>
<svg
   width="24"
   height="24"
   viewBox="0 0 6.349875 6.349875"
   version="1.1"
   id="svg7"
   sodipodi:docname="org.gnome.Gtranslator.svg"
   inkscape:version="1.3 (0e150ed6c4, 2023-07-21)"
   xmlns:inkscape="http://www.inkscape.org/namespaces/inkscape"
   xmlns:sodipodi="http://sodipodi.sourceforge.net/DTD/sodipodi-0.dtd"
   xmlns:xlink="http://www.w3.org/1999/xlink"
   xmlns="http://www.w3.org/2000/svg"
   xmlns:svg="http://www.w3.org/2000/svg">
  <sodipodi:namedview
     id="namedview7"
     pagecolor="#ffffff"
     bordercolor="#000000"
     borderopacity="0.25"
     inkscape:showpageshadow="2"
     inkscape:pageopacity="0.0"
     inkscape:pagecheckerboard="0"
     inkscape:deskcolor="#d1d1d1"
     inkscape:zoom="6.3359375"
     inkscape:cx="71.575832"
     inkscape:cy="14.91492"
     inkscape:window-width="2560"
     inkscape:window-height="998"
     inkscape:window-x="0"
     inkscape:window-y="0"
     inkscape:window-maximized="1"
     inkscape:current-layer="svg7" />
  <defs
     id="defs2">
    <linearGradient
       id="a">
      <stop
         offset="0"
         id="stop1" />
      <stop
         offset="1"
         stop-opacity="0"
         id="stop2" />
    </linearGradient>
    <linearGradient
       xlink:href="#a"
       id="b"
       x1="43.574001"
       y1="54.311001"
       x2="43.574001"
       y2="7.0640001"
       gradientUnits="userSpaceOnUse"
       gradientTransform="matrix(0.26458,0,0,0.26458,0.034,280)" />
    <radialGradient
       id="paint0_radial_2_129"
       cx="0"
       cy="0"
       r="1"
       gradientUnits="userSpaceOnUse"
       gradientTransform="matrix(0,5.8207186,-5.8207186,0,3.1749335,0.26459257)">
      <stop
         stop-color="#FAFAFA"
         id="stop8838"
         offset="0"
         style="stop-color:#ffffff;stop-opacity:1;" />
      <stop
         offset="1"
         stop-color="#B0B0B0"
         id="stop8840"
         style="stop-color:#f2f2f2;stop-opacity:1;" />
    </radialGradient>
  </defs>
  <path
     fill-rule="evenodd"
     clip-rule="evenodd"
     d="m 2.6298231,0.28252564 c -0.028905,0.00842 -0.059212,0.012456 -0.09092,0.01212 -0.196436,0.01579 -0.3904035,0.047087 -0.5819025,0.093907 C 1.135168,0.58394095 0.616915,1.0898328 0.4022388,1.906223 0.30161279,2.322243 0.2561538,2.7443138 0.26585479,3.1724806 c -0.0081,0.402635 0.03129,0.8004811 0.11820001,1.1935383 0.2047832,0.8731343 0.745266,1.4073172 1.6214403,1.6024973 0.4760184,0.09795 0.9568758,0.1342991 1.4426148,0.1089789 0.4318444,-0.0073 0.8521002,-0.08001 1.2607941,-0.2180909 C 5.2132428,5.6743842 5.5779373,5.3381319 5.8029874,4.8506467 5.9243229,4.569506 6.0031408,4.2766709 6.039388,3.9721679 6.0878319,3.5389213 6.0979391,3.1047221 6.0697091,2.6695705 6.0492837,2.3230367 5.98261,1.9857711 5.8696616,1.6577894 5.6721805,1.1130337 5.3054488,0.73033475 4.7695193,0.50968975 4.4471574,0.38707895 4.1137625,0.31235416 3.7693611,0.28552596 c -0.3798283,-0.026881 -0.7596567,-0.027891 -1.139538,-0.003 z"
     fill="url(#paint0_radial_2_129)"
     id="path8836"
     style="fill:url(#paint0_radial_2_129);stroke-width:0.264578"
     sodipodi:nodetypes="cccccccccccccccc" />
  <g
     id="g21"
     transform="matrix(0.85111043,0,0,0.85111043,0.52710462,0.38250268)"
     style="stroke-width:1.17494">
    <text
       style="line-height:0%;text-align:center"
       y="5.2214675"
       x="1.8211679"
       transform="scale(1.0244807,0.97610429)"
       font-weight="700"
       font-size="2.19361px"
       font-family="FreeSans"
       text-anchor="middle"
       fill="#4d4d4d"
       stroke-width="0.343809"
       id="text9"><tspan
         y="5.2214675"
         x="1.8211679"
         id="tspan9"
         style="stroke-width:0.343809">A</tspan></text>
    <text
       style="line-height:0%;text-align:center"
       y="3.0656691"
       x="4.4085336"
       transform="scale(0.97074382,1.0301379)"
       font-weight="700"
       font-size="2.77842px"
       font-family="FreeSans"
       text-anchor="middle"
       fill="#4d4d4d"
       stroke-width="0.343808"
       id="text10"><tspan
         y="3.0656691"
         x="4.4085336"
         font-size="2.1936px"
         id="tspan10"
         style="stroke-width:0.343808">𝛀</tspan></text>
    <path
       d="M 2.5418822,2.1459579 2.6282182,2.4112634 3.2321356,1.7447536 2.3545344,1.4651657 2.4059044,1.7105625 C 1.5403902,2.1476891 1.4497379,2.5307158 1.3310264,2.9159066 l 0.4670755,0.082664 C 1.9086115,2.5311481 2.1995624,2.2926761 2.5418822,2.1459579 Z M 3.5917229,4.3558275 3.5053869,4.090522 2.9014695,4.7570318 3.7790707,5.0366197 3.7277007,4.7912229 C 4.5932149,4.3540963 4.6838672,3.9710696 4.8025786,3.5858788 L 4.3355032,3.5032138 C 4.2249936,3.9706363 3.9340427,4.2091083 3.5917229,4.3558275 Z"
       fill="#33d17a"
       id="path12"
       style="stroke-width:1.17458" />
  </g>
  <path
     id="path14"
     style="fill:#d5d3cf;fill-opacity:1;stroke-width:0.264578"
     d="m 1.6339766,0.70381915 a 0.10978362,0.11006863 0 1 0 0,0.22013727 0.10978362,0.11006863 0 0 0 0,-0.22013727 z m 0.4382075,0 a 0.10964618,0.10993084 0 0 0 -0.057876,0.0191199 0.10964618,0.10993084 0 0 0 -0.012402,0.009818 0.10964618,0.10993084 0 0 0 -0.028421,0.0392733 0.10964618,0.10993084 0 0 0 -0.00568,0.0118854 0.10964618,0.10993084 0 0 0 0,0.0594267 0.10964618,0.10993084 0 0 0 0.0062,0.0134356 0.10964618,0.10993084 0 0 0 0.027388,0.0377231 0.10964618,0.10993084 0 0 0 0.013436,0.0108518 0.10964618,0.10993084 0 0 0 0.05736,0.0186032 0.10964618,0.10993084 0 0 0 0.05736,-0.0186032 0.10964618,0.10993084 0 0 0 0.013436,-0.0108518 0.10964618,0.10993084 0 0 0 0.027388,-0.0377231 0.10964618,0.10993084 0 0 0 0.0062,-0.0134356 0.10964618,0.10993084 0 0 0 0,-0.0594267 0.10964618,0.10993084 0 0 0 -0.00568,-0.0118854 0.10964618,0.10993084 0 0 0 -0.028422,-0.0392733 0.10964618,0.10993084 0 0 0 -0.012402,-0.009818 0.10964618,0.10993084 0 0 0 -0.057876,-0.0191199 z m 0.4382076,0 a 0.10964618,0.10993084 0 0 0 -0.057876,0.0191199 0.10964618,0.10993084 0 0 0 -0.012402,0.009818 0.10964618,0.10993084 0 0 0 -0.028421,0.0392733 0.10964618,0.10993084 0 0 0 -0.00568,0.0118854 0.10964618,0.10993084 0 0 0 0,0.0594267 0.10964618,0.10993084 0 0 0 0.0062,0.0134356 0.10964618,0.10993084 0 0 0 0.027388,0.0377231 0.10964618,0.10993084 0 0 0 0.013436,0.0108518 0.10964618,0.10993084 0 0 0 0.05736,0.0186032 0.10964618,0.10993084 0 0 0 0.05736,-0.0186032 0.10964618,0.10993084 0 0 0 0.013436,-0.0108518 0.10964618,0.10993084 0 0 0 0.027388,-0.0377231 0.10964618,0.10993084 0 0 0 0.0062,-0.0134356 0.10964618,0.10993084 0 0 0 0,-0.0594267 0.10964618,0.10993084 0 0 0 -0.00568,-0.0118854 0.10964618,0.10993084 0 0 0 -0.028421,-0.0392733 0.10964618,0.10993084 0 0 0 -0.012402,-0.009818 0.10964618,0.10993084 0 0 0 -0.057876,-0.0191199 z m 0.4382075,0 a 0.10964618,0.10993084 0 0 0 -0.057876,0.0191199 0.10964618,0.10993084 0 0 0 -0.012402,0.009818 0.10964618,0.10993084 0 0 0 -0.028421,0.0392733 0.10964618,0.10993084 0 0 0 -0.00568,0.0118854 0.10964618,0.10993084 0 0 0 0,0.0594267 0.10964618,0.10993084 0 0 0 0.0062,0.0134356 0.10964618,0.10993084 0 0 0 0.027388,0.0377231 0.10964618,0.10993084 0 0 0 0.013436,0.0108518 0.10964618,0.10993084 0 0 0 0.05736,0.0186032 0.10964618,0.10993084 0 0 0 0.05736,-0.0186032 0.10964618,0.10993084 0 0 0 0.013436,-0.0108518 0.10964618,0.10993084 0 0 0 0.027388,-0.0377231 0.10964618,0.10993084 0 0 0 0.0062,-0.0134356 0.10964618,0.10993084 0 0 0 0,-0.0594267 0.10964618,0.10993084 0 0 0 -0.00568,-0.0118854 0.10964618,0.10993084 0 0 0 -0.028421,-0.0392733 0.10964618,0.10993084 0 0 0 -0.012402,-0.009818 0.10964618,0.10993084 0 0 0 -0.057876,-0.0191199 z m 0.4382075,0 a 0.10964618,0.10993084 0 0 0 -0.057877,0.0191199 0.10964618,0.10993084 0 0 0 -0.012402,0.009818 0.10964618,0.10993084 0 0 0 -0.028421,0.0392733 0.10964618,0.10993084 0 0 0 -0.00568,0.0118854 0.10964618,0.10993084 0 0 0 0,0.0594267 0.10964618,0.10993084 0 0 0 0.0062,0.0134356 0.10964618,0.10993084 0 0 0 0.027388,0.0377231 0.10964618,0.10993084 0 0 0 0.013436,0.0108518 0.10964618,0.10993084 0 0 0 0.05736,0.0186032 0.10964618,0.10993084 0 0 0 0.057877,-0.0191199 0.10964618,0.10993084 0 0 0 0.011885,-0.009818 0.10964618,0.10993084 0 0 0 0.028422,-0.0387566 0.10964618,0.10993084 0 0 0 0.0062,-0.0129189 0.10964618,0.10993084 0 0 0 0,-0.0594267 0.10964618,0.10993084 0 0 0 -0.00568,-0.0118854 0.10964618,0.10993084 0 0 0 -0.029455,-0.0403068 0.10964618,0.10993084 0 0 0 -0.011369,-0.008785 0.10964618,0.10993084 0 0 0 -0.057877,-0.0191199 z m 0.4382075,0 a 0.10964618,0.10993084 0 0 0 -0.057876,0.0191199 0.10964618,0.10993084 0 0 0 -0.012402,0.009818 0.10964618,0.10993084 0 0 0 -0.028421,0.0392733 0.10964618,0.10993084 0 0 0 -0.00568,0.0118854 0.10964618,0.10993084 0 0 0 0,0.0594267 0.10964618,0.10993084 0 0 0 0.0062,0.0134356 0.10964618,0.10993084 0 0 0 0.027388,0.0377231 0.10964618,0.10993084 0 0 0 0.013436,0.0108518 0.10964618,0.10993084 0 0 0 0.05736,0.0186032 0.10964618,0.10993084 0 0 0 0.057876,-0.0191199 0.10964618,0.10993084 0 0 0 0.011885,-0.009302 0.10964618,0.10993084 0 0 0 0.029455,-0.0408236 0.10964618,0.10993084 0 0 0 0.00465,-0.0103351 0.10964618,0.10993084 0 0 0 0,-0.0614937 0.10964618,0.10993084 0 0 0 -0.00413,-0.008785 0.10964618,0.10993084 0 0 0 -0.030489,-0.0423738 0.10964618,0.10993084 0 0 0 -0.011369,-0.008785 0.10964618,0.10993084 0 0 0 -0.057876,-0.0191199 z m 0.4382075,0 a 0.10964618,0.10993084 0 0 0 -0.058393,0.0191199 0.10964618,0.10993084 0 0 0 -0.011369,0.009302 0.10964618,0.10993084 0 0 0 -0.028938,0.0397901 0.10964618,0.10993084 0 0 0 -0.00568,0.0118854 0.10964618,0.10993084 0 0 0 0,0.0594267 0.10964618,0.10993084 0 0 0 0.0062,0.0134356 0.10964618,0.10993084 0 0 0 0.027905,0.0377231 0.10964618,0.10993084 0 0 0 0.012402,0.0103351 0.10964618,0.10993084 0 0 0 0.057876,0.0191199 0.10964618,0.10993084 0 0 0 0.05736,-0.0191199 0.10964618,0.10993084 0 0 0 0.012402,-0.0103351 0.10964618,0.10993084 0 0 0 0.027905,-0.0377231 0.10964618,0.10993084 0 0 0 0.0062,-0.0134356 0.10964618,0.10993084 0 0 0 0,-0.0594267 0.10964618,0.10993084 0 0 0 -0.00568,-0.0118854 0.10964618,0.10993084 0 0 0 -0.028938,-0.0397901 0.10964618,0.10993084 0 0 0 -0.011369,-0.009302 0.10964618,0.10993084 0 0 0 -0.057876,-0.0191199 z m 0.4376908,0 a 0.10978362,0.11006863 0 1 0 0,0.22013727 0.10978362,0.11006863 0 0 0 0,-0.22013727 z m 0.437174,5.1676e-4 a 0.10978362,0.11006863 0 0 0 0.00103,0.21962051 0.10978362,0.11006863 0 0 0 0.1043844,-0.1431409 C 5.2093631,0.75448632 5.1744159,0.72856862 5.1380865,0.70433591 Z m -3.9304321,0.003617 c -0.040057,0.0270924 -0.078833,0.0554915 -0.1162696,0.0852644 a 0.10978362,0.11006863 0 0 0 0.1043843,0.1307388 0.10978362,0.11006863 0 0 0 0.011885,-0.2160032 z" />
  <path
     id="path15"
     style="fill:#26a269;fill-opacity:1;stroke-width:0.264578"
     d="m 0.265612,2.9754704 c -7.53e-4,0.044216 -9.51e-4,0.088458 -5.17e-4,0.1328058 -1.42e-4,-0.040236 -2.95e-4,-0.080588 5.17e-4,-0.1209205 -9e-5,-0.00397 8e-5,-0.00792 0,-0.011885 z M 6.0832299,2.988906 C 6.0823497,3.2552431 6.0690065,3.5211534 6.0393058,3.7867744 6.0030586,4.091277 5.9244845,4.3841161 5.8031491,4.6652565 5.5780992,5.1527412 5.2130021,5.4889408 4.7086638,5.6739606 4.2999703,5.8120413 3.8801444,5.8847308 3.4483004,5.8920308 2.9625619,5.917351 2.4815408,5.8814624 2.0055229,5.7835125 1.1293494,5.5883325 0.5887303,5.0541913 0.383948,4.1810578 0.309101,3.8425555 0.269989,3.50039 0.265612,3.1547841 c 1.12e-4,0.00587 -1.33e-4,0.0117 0,0.01757 -0.0081,0.4026346 0.031426,0.8006453 0.118336,1.1937021 0.2047831,0.8731334 0.7454014,1.4072747 1.6215749,1.6024546 0.4760179,0.09795 0.957039,0.1343553 1.4427775,0.1090352 C 3.8801444,6.070246 4.2999703,5.997557 4.7086638,5.8594757 5.2130021,5.6744555 5.5780992,5.3382559 5.8031491,4.8507712 5.9244845,4.5696308 6.0030586,4.2767918 6.0393058,3.9722892 6.0758886,3.6451198 6.0903714,3.3171617 6.0832299,2.988906 Z" />
  <path
     id="path19"
     style="fill:#aaaaaa;fill-opacity:1;stroke-width:0.264578"
     d="m 6.0790958,2.8881389 c -0.00671,0.1851657 -0.019124,0.370175 -0.03979,0.554994 C 6.0030588,3.7476356 5.9244845,4.0404745 5.8031491,4.321615 5.5780992,4.8090997 5.2130021,5.1452992 4.7086638,5.3303191 4.2999703,5.4683998 3.8801444,5.5410893 3.4483004,5.5483893 2.9625619,5.5737093 2.4815408,5.5373043 2.0055229,5.4393542 1.1293494,5.2441743 0.5887311,4.710033 0.383948,3.8368996 0.316938,3.5338346 0.278718,3.2279033 0.268195,2.9191442 c -5.33e-4,0.01881 -0.0023,0.037492 -0.0026,0.056326 8e-5,0.00397 -9e-5,0.00791 0,0.011885 -8.12e-4,0.040333 -6.59e-4,0.080684 -5.17e-4,0.1209205 1.52e-4,0.015517 2.19e-4,0.030975 5.17e-4,0.046508 0.0044,0.3456055 0.04349,0.6877718 0.118336,1.0262737 0.2047822,0.8731327 0.7454022,1.4072748 1.6215749,1.6024547 0.4760174,0.09795 0.9570395,0.1338385 1.4427775,0.1085183 C 3.880127,5.8847304 4.2999537,5.8120414 4.7086468,5.6739602 5.2129846,5.4889406 5.5780824,5.1527403 5.8031321,4.6652561 5.9244676,4.3841172 6.0030416,4.0912763 6.0392888,3.786774 c 0.029701,-0.2656207 0.043044,-0.5315316 0.043924,-0.7978684 -7.32e-4,-0.033581 -0.003,-0.067189 -0.00413,-0.1007671 z" />
</svg>

<svg xmlns="http://www.w3.org/2000/svg" width="24" height="24" viewBox="0 0 6.35 6.35"><defs><radialGradient id="b" cx="0" cy="0" r="1" gradientTransform="rotate(90 1.455 1.72) scale(5.82072)" gradientUnits="userSpaceOnUse"><stop offset="0" stop-color="#FAFAFA" style="stop-color:#fff;stop-opacity:1"/><stop offset="1" stop-color="#B0B0B0" style="stop-color:#f2f2f2;stop-opacity:1"/></radialGradient><linearGradient id="a"><stop offset="0"/><stop offset="1" stop-opacity="0"/></linearGradient></defs><path fill="url(#b)" fill-rule="evenodd" d="M2.63.283a.312.312 0 0 1-.091.012c-.197.015-.39.047-.582.094-.822.195-1.34.7-1.555 1.517-.1.416-.146.838-.136 1.266-.008.403.031.801.118 1.194.205.873.745 1.407 1.621 1.603.477.097.957.134 1.443.108.432-.007.852-.08 1.26-.218a1.87 1.87 0 0 0 1.095-1.008c.121-.281.2-.574.236-.879.049-.433.059-.867.03-1.302a3.775 3.775 0 0 0-.2-1.012A1.886 1.886 0 0 0 4.77.51a3.581 3.581 0 0 0-1-.224A8.37 8.37 0 0 0 2.63.283z" clip-rule="evenodd" style="fill:url(#b);stroke-width:.264578"/><g style="stroke-width:1.17494"><text x="1.821" y="5.221" fill="#4d4d4d" stroke-width=".344" font-family="FreeSans" font-size="2.194" font-weight="700" style="line-height:0%;text-align:center" text-anchor="middle" transform="matrix(.87195 0 0 .83077 .527 .383)"><tspan x="1.821" y="5.221" style="stroke-width:.343809">A</tspan></text><text x="4.409" y="3.066" fill="#4d4d4d" stroke-width=".344" font-family="FreeSans" font-size="2.778" font-weight="700" style="line-height:0%;text-align:center" text-anchor="middle" transform="matrix(.82621 0 0 .87676 .527 .383)"><tspan x="4.409" y="3.066" font-size="2.194" style="stroke-width:.343808">𝛀</tspan></text><path fill="#33d17a" d="m2.542 2.146.086.265.604-.666-.877-.28.05.246c-.865.437-.955.82-1.074 1.205l.467.083c.11-.468.402-.706.744-.853Zm1.05 2.21-.087-.265-.604.666.878.28-.051-.246c.865-.437.956-.82 1.075-1.205l-.467-.083c-.111.468-.402.706-.744.853Z" style="stroke-width:1.17458" transform="translate(.527 .383) scale(.85111)"/></g><path d="M1.634.704a.11.11 0 1 0 0 .22.11.11 0 0 0 0-.22zm.438 0a.11.11 0 0 0-.058.019.11.11 0 0 0-.012.01.11.11 0 0 0-.029.039.11.11 0 0 0-.005.012.11.11 0 0 0 0 .06.11.11 0 0 0 .006.013.11.11 0 0 0 .027.038.11.11 0 0 0 .014.01.11.11 0 0 0 .057.019.11.11 0 0 0 .058-.019.11.11 0 0 0 .013-.01.11.11 0 0 0 .027-.038.11.11 0 0 0 .007-.014.11.11 0 0 0 0-.06.11.11 0 0 0-.006-.011.11.11 0 0 0-.029-.04.11.11 0 0 0-.012-.01.11.11 0 0 0-.058-.018zm.438 0a.11.11 0 0 0-.057.019.11.11 0 0 0-.013.01.11.11 0 0 0-.028.039.11.11 0 0 0-.006.012.11.11 0 0 0 0 .06.11.11 0 0 0 .006.013.11.11 0 0 0 .028.038.11.11 0 0 0 .013.01.11.11 0 0 0 .057.019.11.11 0 0 0 .058-.019.11.11 0 0 0 .013-.01.11.11 0 0 0 .028-.038.11.11 0 0 0 .006-.014.11.11 0 0 0 0-.06.11.11 0 0 0-.006-.011.11.11 0 0 0-.028-.04.11.11 0 0 0-.013-.01.11.11 0 0 0-.058-.018zm.439 0a.11.11 0 0 0-.058.019.11.11 0 0 0-.013.01.11.11 0 0 0-.028.039.11.11 0 0 0-.006.012.11.11 0 0 0 0 .06.11.11 0 0 0 .006.013.11.11 0 0 0 .028.038.11.11 0 0 0 .013.01.11.11 0 0 0 .058.019.11.11 0 0 0 .057-.019.11.11 0 0 0 .013-.01.11.11 0 0 0 .028-.038.11.11 0 0 0 .006-.014.11.11 0 0 0 0-.06.11.11 0 0 0-.006-.011.11.11 0 0 0-.028-.04.11.11 0 0 0-.013-.01.11.11 0 0 0-.057-.018zm.438 0a.11.11 0 0 0-.058.019.11.11 0 0 0-.012.01.11.11 0 0 0-.029.039.11.11 0 0 0-.006.012.11.11 0 0 0 0 .06.11.11 0 0 0 .007.013.11.11 0 0 0 .027.038.11.11 0 0 0 .013.01.11.11 0 0 0 .058.019.11.11 0 0 0 .058-.02.11.11 0 0 0 .012-.009.11.11 0 0 0 .028-.039.11.11 0 0 0 .006-.013.11.11 0 0 0 0-.06.11.11 0 0 0-.005-.011.11.11 0 0 0-.03-.04.11.11 0 0 0-.011-.01.11.11 0 0 0-.058-.018zm.438 0a.11.11 0 0 0-.058.019.11.11 0 0 0-.012.01.11.11 0 0 0-.029.039.11.11 0 0 0-.005.012.11.11 0 0 0 0 .06.11.11 0 0 0 .006.013.11.11 0 0 0 .027.038.11.11 0 0 0 .014.01.11.11 0 0 0 .057.019.11.11 0 0 0 .058-.02.11.11 0 0 0 .012-.008.11.11 0 0 0 .03-.041.11.11 0 0 0 .004-.01.11.11 0 0 0 0-.062.11.11 0 0 0-.004-.009.11.11 0 0 0-.03-.042.11.11 0 0 0-.012-.01.11.11 0 0 0-.058-.018zm.438 0a.11.11 0 0 0-.058.019.11.11 0 0 0-.012.01.11.11 0 0 0-.028.039.11.11 0 0 0-.006.012.11.11 0 0 0 0 .06.11.11 0 0 0 .006.013.11.11 0 0 0 .028.038.11.11 0 0 0 .012.01.11.11 0 0 0 .058.019.11.11 0 0 0 .058-.02.11.11 0 0 0 .012-.01.11.11 0 0 0 .028-.037.11.11 0 0 0 .006-.014.11.11 0 0 0 0-.06.11.11 0 0 0-.006-.011.11.11 0 0 0-.029-.04.11.11 0 0 0-.01-.01.11.11 0 0 0-.059-.018zm.438 0a.11.11 0 1 0 0 .22.11.11 0 0 0 0-.22zm.437 0a.11.11 0 0 0 .001.22.11.11 0 0 0 .105-.143 1.895 1.895 0 0 0-.106-.077Zm-3.93.004c-.04.027-.08.055-.117.085a.11.11 0 0 0 .105.131.11.11 0 0 0 .012-.216z" style="fill:#d5d3cf;fill-opacity:1;stroke-width:.264578"/><path d="M.266 2.975v.133-.133zm5.817.014c0 .266-.014.532-.044.798a3.143 3.143 0 0 1-.236.878A1.87 1.87 0 0 1 4.71 5.674c-.409.138-.829.21-1.26.218a5.666 5.666 0 0 1-1.443-.108C1.129 5.588.589 5.054.384 4.18a5.037 5.037 0 0 1-.118-1.026v.017c-.008.403.031.801.118 1.194.205.873.745 1.407 1.622 1.603.476.097.957.134 1.442.109.432-.008.852-.08 1.26-.219a1.87 1.87 0 0 0 1.095-1.008c.121-.281.2-.574.236-.879.037-.327.051-.655.044-.983Z" style="fill:#26a269;fill-opacity:1;stroke-width:.264578"/><path d="M6.08 2.888c-.008.185-.02.37-.04.555a3.143 3.143 0 0 1-.237.879A1.87 1.87 0 0 1 4.71 5.33c-.409.138-.829.211-1.26.218a5.667 5.667 0 0 1-1.443-.109C1.129 5.244.589 4.71.384 3.837a5.036 5.036 0 0 1-.116-.918l-.002.056v.18c.004.345.043.688.118 1.026.205.873.745 1.407 1.622 1.603.476.097.957.133 1.442.108.432-.007.852-.08 1.26-.218a1.87 1.87 0 0 0 1.095-1.009c.121-.28.2-.574.236-.878.03-.266.043-.532.044-.798 0-.034-.003-.067-.004-.1z" style="fill:#aaa;fill-opacity:1;stroke-width:.264578"/></svg>
